contributed-vectors/samsung_smart_things.svg

<svg xmlns="http://www.w3.org/2000/svg" xml:space="preserve" style="fill-rule:evenodd;clip-rule:evenodd;stroke-linejoin:round;stroke-miterlimit:2" viewBox="0 0 192 192"><path d="M164.5 21.5c0-5.519-4.481-10-10-10h-133c-5.519 0-10 4.481-10 10v133c0 5.519 4.481 10 10 10h133c5.519 0 10-4.481 10-10v-133Z" style="fill:#fff" transform="translate(8 8)"/><path d="M96 78.249c9.797 0 17.751 7.954 17.751 17.751S105.797 113.751 96 113.751 78.249 105.797 78.249 96 86.203 78.249 96 78.249Zm0 5.922c6.529 0 11.829 5.3 11.829 11.829 0 6.529-5.3 11.829-11.829 11.829-6.529 0-11.829-5.3-11.829-11.829 0-6.529 5.3-11.829 11.829-11.829ZM121.947 85.206c-.827-6.074 2.781-12.063 8.815-14.024 6.783-2.204 14.079 1.514 16.283 8.297 2.204 6.783-1.513 14.08-8.297 16.283-5.908 1.92-12.207-.653-15.189-5.832l-4.13 1.342-1.542-4.747 4.06-1.319Zm20.998-4.395c1.469 4.52-1.008 9.383-5.529 10.852-4.52 1.468-9.382-1.009-10.851-5.53-1.469-4.52 1.009-9.382 5.529-10.851 4.52-1.469 9.383 1.009 10.851 5.529Z" style="fill:#9abeff" transform="translate(.03 3.872)"/><path d="M121.947 85.206c-.827-6.074 2.781-12.063 8.815-14.024 6.783-2.204 14.079 1.514 16.283 8.297 2.204 6.783-1.513 14.08-8.297 16.283-5.908 1.92-12.207-.653-15.189-5.832l-4.13 1.342-1.542-4.747 4.06-1.319Zm20.998-4.395c1.469 4.52-1.008 9.383-5.529 10.852-4.52 1.468-9.382-1.009-10.851-5.53-1.469-4.52 1.009-9.382 5.529-10.851 4.52-1.469 9.383 1.009 10.851 5.529Z" style="fill:#9abeff" transform="rotate(72 93.262 97.957)"/><path d="M121.947 85.206c-.827-6.074 2.781-12.063 8.815-14.024 6.783-2.204 14.079 1.514 16.283 8.297 2.204 6.783-1.513 14.08-8.297 16.283-5.908 1.92-12.207-.653-15.189-5.832l-4.13 1.342-1.542-4.747 4.06-1.319Zm20.998-4.395c1.469 4.52-1.008 9.383-5.529 10.852-4.52 1.468-9.382-1.009-10.851-5.53-1.469-4.52 1.009-9.382 5.529-10.851 4.52-1.469 9.383 1.009 10.851 5.529Z" style="fill:#9abeff" transform="rotate(144 95.297 97.941)"/><path d="M93.691 67.902c-6.032-1.09-10.614-6.372-10.614-12.716 0-7.132 5.791-12.923 12.923-12.923s12.923 5.791 12.923 12.923c0 6.213-4.394 11.407-10.241 12.643v11.156h-4.991V67.902ZM96 46.574c4.753 0 8.612 3.859 8.612 8.612s-3.859 8.611-8.612 8.611-8.612-3.858-8.612-8.611 3.859-8.612 8.612-8.612Z" style="fill:#9abeff" transform="translate(.03 3.872)"/><path d="M93.691 67.902c-6.032-1.09-10.614-6.372-10.614-12.716 0-7.132 5.791-12.923 12.923-12.923s12.923 5.791 12.923 12.923c0 6.213-4.394 11.407-10.241 12.643v11.156h-4.991V67.902ZM96 46.574c4.753 0 8.612 3.859 8.612 8.612s-3.859 8.611-8.612 8.611-8.612-3.858-8.612-8.611 3.859-8.612 8.612-8.612Z" style="fill:#9abeff" transform="rotate(-72 98.68 97.915)"/></svg>

<?xml version="1.0" encoding="UTF-8" standalone="no"?>
<!DOCTYPE svg PUBLIC "-//W3C//DTD SVG 1.1//EN" "http://www.w3.org/Graphics/SVG/1.1/DTD/svg11.dtd">
<svg width="100%" height="100%" viewBox="0 0 192 192" version="1.1" xmlns="http://www.w3.org/2000/svg" xmlns:xlink="http://www.w3.org/1999/xlink" xml:space="preserve" xmlns:serif="http://www.serif.com/" style="fill-rule:evenodd;clip-rule:evenodd;stroke-linejoin:round;stroke-miterlimit:2;">
    <g id="Layer1">
        <g transform="matrix(1,0,0,1,8,8)">
            <path d="M164.5,21.5C164.5,15.981 160.019,11.5 154.5,11.5L21.5,11.5C15.981,11.5 11.5,15.981 11.5,21.5L11.5,154.5C11.5,160.019 15.981,164.5 21.5,164.5L154.5,164.5C160.019,164.5 164.5,160.019 164.5,154.5L164.5,21.5Z" style="fill:white;"/>
        </g>
        <g transform="matrix(1,0,0,1,0.0307389,3.87197)">
            <path d="M96,78.249C105.797,78.249 113.751,86.203 113.751,96C113.751,105.797 105.797,113.751 96,113.751C86.203,113.751 78.249,105.797 78.249,96C78.249,86.203 86.203,78.249 96,78.249ZM96,84.171C102.529,84.171 107.829,89.471 107.829,96C107.829,102.529 102.529,107.829 96,107.829C89.471,107.829 84.171,102.529 84.171,96C84.171,89.471 89.471,84.171 96,84.171Z" style="fill:rgb(154,190,255);"/>
            <path d="M121.947,85.206C121.12,79.132 124.728,73.143 130.762,71.182C137.545,68.978 144.841,72.696 147.045,79.479C149.249,86.262 145.532,93.559 138.748,95.762C132.84,97.682 126.541,95.109 123.559,89.93L119.429,91.272L117.887,86.525L121.947,85.206ZM142.945,80.811C144.414,85.331 141.937,90.194 137.416,91.663C132.896,93.131 128.034,90.654 126.565,86.133C125.096,81.613 127.574,76.751 132.094,75.282C136.614,73.813 141.477,76.291 142.945,80.811Z" style="fill:rgb(154,190,255);"/>
            <g transform="matrix(0.309017,0.951057,-0.951057,0.309017,157.574,-24.8824)">
                <path d="M121.947,85.206C121.12,79.132 124.728,73.143 130.762,71.182C137.545,68.978 144.841,72.696 147.045,79.479C149.249,86.262 145.532,93.559 138.748,95.762C132.84,97.682 126.541,95.109 123.559,89.93L119.429,91.272L117.887,86.525L121.947,85.206ZM142.945,80.811C144.414,85.331 141.937,90.194 137.416,91.663C132.896,93.131 128.034,90.654 126.565,86.133C125.096,81.613 127.574,76.751 132.094,75.282C136.614,73.813 141.477,76.291 142.945,80.811Z" style="fill:rgb(154,190,255);"/>
            </g>
            <g transform="matrix(-0.809017,0.587785,-0.587785,-0.809017,229.932,117.291)">
                <path d="M121.947,85.206C121.12,79.132 124.728,73.143 130.762,71.182C137.545,68.978 144.841,72.696 147.045,79.479C149.249,86.262 145.532,93.559 138.748,95.762C132.84,97.682 126.541,95.109 123.559,89.93L119.429,91.272L117.887,86.525L121.947,85.206ZM142.945,80.811C144.414,85.331 141.937,90.194 137.416,91.663C132.896,93.131 128.034,90.654 126.565,86.133C125.096,81.613 127.574,76.751 132.094,75.282C136.614,73.813 141.477,76.291 142.945,80.811Z" style="fill:rgb(154,190,255);"/>
            </g>
            <path d="M93.691,67.902C87.659,66.812 83.077,61.53 83.077,55.186C83.077,48.054 88.868,42.263 96,42.263C103.132,42.263 108.923,48.054 108.923,55.186C108.923,61.399 104.529,66.593 98.682,67.829L98.682,78.985L93.691,78.985L93.691,67.902ZM96,46.574C100.753,46.574 104.612,50.433 104.612,55.186C104.612,59.939 100.753,63.797 96,63.797C91.247,63.797 87.388,59.939 87.388,55.186C87.388,50.433 91.247,46.574 96,46.574Z" style="fill:rgb(154,190,255);"/>
            <g transform="matrix(0.309017,-0.951057,0.951057,0.309017,-24.9671,157.636)">
                <path d="M93.691,67.902C87.659,66.812 83.077,61.53 83.077,55.186C83.077,48.054 88.868,42.263 96,42.263C103.132,42.263 108.923,48.054 108.923,55.186C108.923,61.399 104.529,66.593 98.682,67.829L98.682,78.985L93.691,78.985L93.691,67.902ZM96,46.574C100.753,46.574 104.612,50.433 104.612,55.186C104.612,59.939 100.753,63.797 96,63.797C91.247,63.797 87.388,59.939 87.388,55.186C87.388,50.433 91.247,46.574 96,46.574Z" style="fill:rgb(154,190,255);"/>
            </g>
        </g>
    </g>
</svg>
